assets/2023/icons/cargo.svg

<svg width="17" height="17" viewBox="0 0 17 17" fill="none" xmlns="http://www.w3.org/2000/svg">
<rect x="1.5" y="1.5" width="5" height="5" rx="0.5" fill="#FFF4EB" stroke="#E66D17"/>
<rect x="8.5" y="1.5" width="5" height="5" rx="0.5" fill="#FFF4EB" stroke="#E66D17"/>
<rect x="1.5" y="8.5" width="5" height="5" rx="0.5" fill="#FFF4EB" stroke="#E66D17"/>
<path d="M17 12C17 14.7614 14.7614 17 12 17C9.23858 17 7 14.7614 7 12C7 9.23858 9.23858 7 12 7L17 7V12Z" fill="white"/>
<path fill-rule="evenodd" clip-rule="evenodd" d="M12 16C14.2092 16 16 14.2092 16 12C16 9.79083 14.2092 8 12 8C9.79089 8 8 9.79083 8 12C8 14.2092 9.79089 16 12 16ZM14.4639 13.7119C13.9219 14.4904 13.0205 15 12 15C10.9806 15 10.0798 14.4915 9.53772 13.7144H12.0365C12.0636 13.7144 12.0817 13.705 12.0817 13.6801V12.8289C12.0817 12.8041 12.0636 12.7992 12.0365 12.7992H11.3368V12.2596H12.0936C12.1627 12.2596 12.463 12.2795 12.559 12.6655C12.5697 12.7079 12.5851 12.7845 12.6024 12.871C12.6335 13.0267 12.6713 13.2147 12.7002 13.2942C12.7203 13.3562 12.7681 13.4468 12.8323 13.528C12.9115 13.6284 13.0156 13.7144 13.1235 13.7144L14.3574 13.7119H14.4639ZM9.76599 9.99762C10.3152 9.38525 11.1127 9 12 9C13.6567 9 15 10.3431 15 12C15 12.2714 14.9641 12.5344 14.8965 12.7844H14.2334C14.1719 12.7844 14.1072 12.7722 14.0493 12.7449C13.9636 12.7043 13.8933 12.6303 13.8728 12.5135C13.8057 12.1332 13.657 12.0124 13.429 11.8317L13.4128 11.8191C13.7073 11.6311 14.0134 11.3538 14.0134 10.9826C14.0134 10.5818 13.7402 10.3293 13.5542 10.2055C13.2927 10.0323 13.0037 9.99756 12.9255 9.99756L9.76599 9.99762ZM9.09961 12.7695C9.03467 12.5239 9 12.266 9 12C9 11.6074 9.07544 11.2323 9.21265 10.8886L10.0211 10.8885V12.7695H9.09961ZM11.337 11.4628V10.9084H12.325C12.376 10.9084 12.6853 10.9678 12.6853 11.2004C12.6853 11.3935 12.4481 11.4628 12.2529 11.4628L11.337 11.4628Z" fill="#6C707E"/>
</svg>

<svg xmlns="http://www.w3.org/2000/svg" width="17" height="17" fill="none" viewBox="0 0 17 17"><rect width="5" height="5" x="1.5" y="1.5" fill="#FFF4EB" stroke="#E66D17" rx=".5"/><rect width="5" height="5" x="8.5" y="1.5" fill="#FFF4EB" stroke="#E66D17" rx=".5"/><rect width="5" height="5" x="1.5" y="8.5" fill="#FFF4EB" stroke="#E66D17" rx=".5"/><path fill="#fff" d="M17 12a5 5 0 1 1-5-5h5z"/><path fill="#6C707E" fill-rule="evenodd" d="M12 16a4 4 0 1 0 0-8 4 4 0 0 0 0 8m2.464-2.288A3 3 0 0 1 12 15c-1.02 0-1.92-.508-2.462-1.286h2.499c.027 0 .045-.009.045-.034v-.851c0-.025-.018-.03-.046-.03h-.7v-.54h.758c.069 0 .369.02.465.406.01.043.026.12.043.206.031.156.07.344.098.423.02.062.068.153.132.234.08.1.184.186.291.186l1.234-.002zM9.766 9.998a3 3 0 0 1 5.13 2.787h-.663a.4.4 0 0 1-.184-.04.3.3 0 0 1-.176-.231c-.067-.38-.216-.502-.444-.682l-.016-.013c.294-.188.6-.465.6-.836 0-.401-.273-.654-.459-.777a1.3 1.3 0 0 0-.629-.208zM9.1 12.77a3 3 0 0 1 .113-1.881h.808v1.88zm2.237-1.307v-.555h.988c.051 0 .36.06.36.292 0 .194-.237.263-.432.263z" clip-rule="evenodd"/></svg>
